outputs/icons/hardware/cast_round.svg

<svg xmlns="http://www.w3.org/2000/svg" width="1200" height="1200" fill="none"><g clip-path="url(#a)"><path fill="#000" d="M1050 150H150c-55 0-100 45-100 100v100c0 27.5 22.5 50 50 50s50-22.5 50-50v-50c0-27.5 22.5-50 50-50h800c27.5 0 50 22.5 50 50v600c0 27.5-22.5 50-50 50H750c-27.5 0-50 22.5-50 50s22.5 50 50 50h300c55 0 100-45 100-100V250c0-55-45-100-100-100M107 704.5c-30-5-57 19.5-57 50 0 24.5 18 45 42.5 49 104 18 186 100 204 204 4 24.5 24.5 42.5 49 42.5 30.5 0 54.5-27 50-57-24-148-141-264.5-288.5-288.5M50 900v150h150c0-83-67-150-150-150m55-397.5c-29.5-2.5-55 20.5-55 50 0 25.5 19 47 44 49.5 213.5 20.5 383.5 190.5 404 404 2.5 25 24 43.5 49.5 43.5 30 0 53-26 50-55.5C571 734.5 364.5 528.5 105 502.5"/></g><defs><clipPath id="a"><path fill="#fff" d="M0 0h1200v1200H0z"/></clipPath></defs></svg>

<svg width="1200" height="1200" viewBox="0 0 1200 1200" fill="none" xmlns="http://www.w3.org/2000/svg"><g clip-path="url(#clip0_238_1287)"><path d="M1050 150H150C95 150 50 195 50 250V350C50 377.5 72.5 400 100 400C127.5 400 150 377.5 150 350V300C150 272.5 172.5 250 200 250H1000C1027.5 250 1050 272.5 1050 300V900C1050 927.5 1027.5 950 1000 950H750C722.5 950 700 972.5 700 1000C700 1027.5 722.5 1050 750 1050H1050C1105 1050 1150 1005 1150 950V250C1150 195 1105 150 1050 150ZM107 704.5C77 699.5 50 724 50 754.5C50 779 68 799.5 92.5 803.5C196.5 821.5 278.5 903.5 296.5 1007.5C300.5 1032 321 1050 345.5 1050C376 1050 400 1023 395.5 993C371.5 845 254.5 728.5 107 704.5ZM50 900V1050H200C200 967 133 900 50 900ZM105 502.5C75.5 500 50 523 50 552.5C50 578 69 599.5 94 602C307.5 622.5 477.5 792.5 498 1006C500.5 1031 522 1049.5 547.5 1049.5C577.5 1049.5 600.5 1023.5 597.5 994C571 734.5 364.5 528.5 105 502.5Z" fill="#1D1E23"/></g><defs><clipPath id="clip0_238_1287"><path width="24" fill="white" d="M0 0H1200V1200H0V0z"/></clipPath></defs></svg>
